src/icons/icons_set_02/044-enveloppe.svg

<svg height="50" viewBox="0 0 50 50" width="50" xmlns="http://www.w3.org/2000/svg"><path d="m45.7682745 39.0691396c-.0208403.018997-.029816.0271746-.0562649.0487388-.6288295.5562947-1.4425845.8569622-2.3372749.8569622h-35.85094899c-1.89013671 0-3.52378571-1.488248-3.52378571-3.3868069v-22.2012269c0-1.9003681 1.63458732-3.3868068 3.52378571-3.3868068h35.85094899c1.8899377 0 3.5233877 1.488067 3.5233877 3.3868068v22.2012269c0 .9645597-.3950085 1.8228328-1.0087235 2.3684641-.0350398.0339228-.0377347.0365318-.0534266.0510374.0076401-.0073054.0202829-.0198542.0547527-.0540679l-.1351168.1247519c-.0076998.0074634-.0156332.0146636-.0235969.0218223.0298501-.0253824.0355702-.0302468.0362632-.0309019zm-2.8701521-24.0691396h-34.8981224v20.9748406h34.8981224zm.2468193 21.0479247c-.0358583.0330872-.0352894.0325633-.0258922.0239106l-.0023814.0021864c-.0025484.0023257-.0048495.0044256-.0069897.0063838.0028542-.0029284.0156065-.013181.0733653-.059363l-.0017906-.0021637c-.0502626.0427143-.0570996.0485246-.0705935.0606382-.0070756.0064645-.0118659.0108912-.0173503.0161083.0324046-.0252846.0658694-.0466055.0985281-.0639571l-.0084932-.0102627-.0946594.078648c-.0119898.0115511-.0288959.0283394-.0666343.0658152l.0120448.0117044c.0324167-.0477978.0697075-.0917902.1108464-.1296484zm-18.1165597-9.7589589 11.2935777-8.862358 2.4693618 3.1467844-13.8197035 10.8446733-13.2408179-10.8723839 2.5383998-3.0913632z"/></svg>

<?xml version="1.0" encoding="UTF-8"?>
<svg width="50px" height="50px" viewBox="0 0 50 50" version="1.1" xmlns="http://www.w3.org/2000/svg" xmlns:xlink="http://www.w3.org/1999/xlink">
    <!-- Generator: Sketch 52.4 (67378) - http://www.bohemiancoding.com/sketch -->
    <title>044-enveloppe</title>
    <desc>Created with Sketch.</desc>
    <g id="044-enveloppe" stroke="none" stroke-width="1" fill="none" fill-rule="evenodd">
        <path d="M45.7682745,39.0691396 C45.7474342,39.0881366 45.7384585,39.0963142 45.7120096,39.1178784 C45.0831801,39.6741731 44.2694251,39.9748406 43.3747347,39.9748406 L7.52378571,39.9748406 C5.633649,39.9748406 4,38.4865926 4,36.5880337 L4,14.3868068 C4,12.4864387 5.63458732,11 7.52378571,11 L43.3747347,11 C45.2646724,11 46.8981224,12.488067 46.8981224,14.3868068 L46.8981224,36.5880337 C46.8981224,37.5525934 46.5031139,38.4108665 45.8893989,38.9564978 C45.8543591,38.9904206 45.8516642,38.9930296 45.8359723,39.0075352 C45.8436124,39.0002298 45.8562552,38.987681 45.890725,38.9534673 L45.7556082,39.0782192 C45.7479084,39.0856826 45.739975,39.0928828 45.7320113,39.1000415 C45.7618614,39.0746591 45.7675815,39.0697947 45.7682745,39.0691396 Z M42.8981224,15 L8,15 L8,35.9748406 L42.8981224,35.9748406 L42.8981224,15 Z M43.1449417,36.0479247 C43.1090834,36.0810119 43.1096523,36.080488 43.1190495,36.0718353 L43.1166681,36.0740217 C43.1141197,36.0763474 43.1118186,36.0784473 43.1096784,36.0804055 C43.1125326,36.0774771 43.1252849,36.0672245 43.1830437,36.0210425 L43.1812531,36.0188788 C43.1309905,36.0615931 43.1241535,36.0674034 43.1106596,36.079517 C43.103584,36.0859815 43.0987937,36.0904082 43.0933093,36.0956253 C43.1257139,36.0703407 43.1591787,36.0490198 43.1918374,36.0316682 L43.1833442,36.0214055 L43.0886848,36.1000535 C43.076695,36.1116046 43.0597889,36.1283929 43.0220505,36.1658687 L43.0340953,36.1775731 C43.066512,36.1297753 43.1038028,36.0857829 43.1449417,36.0479247 Z M25.028382,26.2889658 L36.3219597,17.4266078 L38.7913215,20.5733922 L24.971618,31.4180655 L11.7308001,20.5456816 L14.2691999,17.4543184 L25.028382,26.2889658 Z" id="Combined-Shape" fill="#000000" fill-rule="nonzero"></path>
    </g>
</svg>
